X: 31
T: Pollonesse #31
M: 3/4
L: 1/16
K: F
Q:120
F2FG F2C2 F2G2|A2AB A2F2 A2B2|B2dc B2A2 G2F2|E2EF GEFD C4|
F2FG F2C2 F2G2|A2AB A2F2 G2A2|B2A2 B2d2 c2B2|A2G2 G4 F4:|
c2cd c2G2 c2d2| e2ef e2c2 d2e2|f2af f2e2 d2c2|=B2Bc d2B2 G4|
c2cd c2G2 c2d2| e2ef e2c2 d2e2|f2e2 f2a2 g2f2|e2d2 d4 c4:|

